public/assets/telephone.svg

<svg width="32" height="32" viewBox="0 0 32 32" fill="none" xmlns="http://www.w3.org/2000/svg">
<g clip-path="url(#clip0)">
<path d="M29.4323 21.0043C27.4732 21.0043 25.5495 20.6979 23.7266 20.0955C22.8333 19.7908 21.7353 20.0703 21.1901 20.6303L17.592 23.3464C13.4193 21.119 10.8489 18.5495 8.65192 14.4081L11.2882 10.9038C11.9731 10.2198 12.2188 9.22058 11.9244 8.28308C11.3194 6.45058 11.0121 4.52783 11.0121 2.56783C11.0122 1.15192 9.86025 0 8.44442 0H2.56775C1.15192 0 0 1.15192 0 2.56775C0 18.7969 13.2032 32 29.4323 32C30.8482 32 32.0001 30.8481 32.0001 29.4323V23.572C32 22.1563 30.8481 21.0043 29.4323 21.0043Z" fill="#B86767"/>
</g>
<defs>
<clipPath id="clip0">
<rect width="32" height="32" fill="white"/>
</clipPath>
</defs>
</svg>

<svg width="32" height="32" fill="none" xmlns="http://www.w3.org/2000/svg"><g clip-path="url(#a)"><path d="M29.432 21.004c-1.959 0-3.883-.306-5.705-.909-.894-.304-1.992-.025-2.537.535l-3.598 2.716c-4.173-2.227-6.743-4.797-8.94-8.938l2.636-3.504c.685-.684.93-1.683.636-2.62a18.196 18.196 0 0 1-.912-5.716A2.57 2.57 0 0 0 8.444 0H2.568A2.57 2.57 0 0 0 0 2.568C0 18.797 13.203 32 29.432 32A2.57 2.57 0 0 0 32 29.432v-5.86a2.57 2.57 0 0 0-2.568-2.568Z" fill="#B86767"/></g><defs><clipPath id="a"><path fill="#fff" d="M0 0h32v32H0z"/></clipPath></defs></svg>
